X: 111
T: Barskemming Bridge
C: attr. John French (1753-1803)
R: reel
B: "John French Collection", John French ed. p.11 #1
S: http://www.heallan.com/french.asp
Z: 2012 John Chambers <jc:trillian.mit.edu>
M: C
L: 1/8
K: Bb
F |\
B2(dB) ecdB | FB (G/F/E/D/) (EC)Cd | BFGe dgec | BFGE DB,-B, :|
g |\
fBdB (FB/c/ d).B | ecdB A(cce) | dFBg fdcB | AcFA Bdeg |
fBdB (FB/c/ d).B | df (e/d/c/B/) (Ac)ec | BFGb gefF | GBTFE DB,-B, |]

%%sep 2 1 500
%%sep 1 1 500

